dist/flags/l/140.svg

<svg width="32" height="24" viewBox="0 0 32 24" fill="none" xmlns="http://www.w3.org/2000/svg">
<mask id="mask0" mask-type="alpha" maskUnits="userSpaceOnUse" x="0" y="0" width="32" height="24">
<rect width="32" height="24" fill="white"/>
</mask>
<g mask="url(#mask0)">
<path fill-rule="evenodd" clip-rule="evenodd" d="M0 0H32V6H0V0Z" fill="#3D58DB"/>
<path fill-rule="evenodd" clip-rule="evenodd" d="M0 6H32V12H0V6Z" fill="#F7FCFF"/>
<path fill-rule="evenodd" clip-rule="evenodd" d="M0 12H32V18H0V12Z" fill="#73BE4A"/>
<path fill-rule="evenodd" clip-rule="evenodd" d="M0 18H32V24H0V18Z" fill="#FFD018"/>
<path fill-rule="evenodd" clip-rule="evenodd" d="M4.5294 5.41606L2.10486 7.09777L2.87959 4.21741L1.09973 2.37743L3.50977 2.27794L4.5294 -0.570312L5.54904 2.27794H7.95498L6.17921 4.21741L7.06854 6.92776L4.5294 5.41606Z" fill="#FECA00"/>
<path fill-rule="evenodd" clip-rule="evenodd" d="M12 0H20V24H12V0Z" fill="#E11C1B"/>
</g>
</svg>

<svg width="32" height="24" fill="none" xmlns="http://www.w3.org/2000/svg">
  <mask id="a" maskUnits="userSpaceOnUse" x="0" y="0" width="32" height="24">
    <path fill="#fff" d="M0 0h32v24H0z"/>
  </mask>
  <g mask="url(#a)" fill-rule="evenodd" clip-rule="evenodd">
    <path d="M0 0h32v6H0V0z" fill="#3D58DB"/>
    <path d="M0 6h32v6H0V6z" fill="#F7FCFF"/>
    <path d="M0 12h32v6H0v-6z" fill="#73BE4A"/>
    <path d="M0 18h32v6H0v-6z" fill="#FFD018"/>
    <path d="M4.53 5.416L2.104 7.098l.775-2.88-1.78-1.84 2.41-.1L4.53-.57l1.019 2.848h2.406l-1.776 1.94.89 2.71-2.54-1.512z" fill="#FECA00"/>
    <path d="M12 0h8v24h-8V0z" fill="#E11C1B"/>
  </g>
</svg>
